!!!COA:	Josquin des Prez
!!!CDT:	~1450-1521/08/27
!!!OPR:	Missa Une mousse de Biscaye
!!!ONM:	3
!!!OTL:	Credo
!!!AGN:	Mass; Credo
!!!SCT:	NJE 5.2
!!!SCA:	New Josquin Edition 5.2
!!!voices:	4
!!!voices-OPR:	4
**kern	**kern	**kern	**kern
*staff4	*staff3	*staff2	*staff1
*Ivox	*Ivox	*Ivox	*Ivox
*I"Bassus	*I"Tenor	*I"Altus	*I"Superius
*I'B	*I'T	*I'A	*I'S
*>[A,B]	*>[A,B]	*>[A,B]	*>[A,B]
*>A	*>A	*>A	*>A
*clefF4	*clefGv2	*clefGv2	*clefG2
*k[b-]	*k[b-]	*k[b-]	*k[b-]
*M2/1	*M2/1	*M2/1	*M2/1
*met(C|)	*met(O.)	*met(C|)	*met(C|)
!!primary-mensuration: met(C|)
*	*rscale:1/4	*	*
=1-	=1-	=1-	=1-
!	!LO:N:vis=1.	!	!
1.BB-	0r	[0F	0r
2C/	.	.	.
=2	=2-	=2	=2
1D	0ryy	1F]	0r
1E-i	.	1G	.
=3	=3-	=3	=3
2D\	0ryy	0A	0r
1C	.	.	.
4BB-/	.	.	.
4AA/	.	.	.
=4	=4-	=4	=4
!	!LO:N:vis=1.	!	!
2GG/	0r	0B-	0r
1D	.	.	.
2E-\	.	.	.
=5	=5-	=5	=5
2C/	0ryy	1A	0r
2D\	.	.	.
2BB-/	.	[1G	.
[2C/	.	.	.
=6	=6-	=6	=6
4C/]	0ryy	1G]	0r
4BB-/	.	.	.
4AA/	.	.	.
4GG/	.	.	.
1AA	.	1F#i	.
=7	=7-	=7	=7
!	!LO:N:vis=1.	!	!
1GG	0r	0G	0r
1r	.	.	.
=8	=8-	=8	=8
1E	0ryy	0r	0r
2E\	.	.	.
2E\	.	.	.
=9	=9-	=9	=9
1.F	0ryy	1A	0r
.	.	[1A	.
4E\	.	.	.
4D\	.	.	.
=10	=10	=10	=10
!	!LO:N:vis=1.	!	!
1C	0r	1A]	0r
1D	.	1A	.
=11	=11-	=11	=11
1GG	0ryy	0B-	0r
2r	.	.	.
[2G\	.	.	.
=12	=12-	=12	=12
2G\]	0ryy	1A	0r
2F\	.	.	.
2E\	.	1G	.
[2C/	.	.	.
=13	=13-	=13	=13
!	!LO:N:vis=1.	!	!
2C/]	0r	1.A	0r
2.D\	.	.	.
4C/	.	.	.
4BB-/	.	4G/	.
4AA/	.	4F/	.
=14	=14-	=14	=14
4GG/	0ryy	1B-	0r
4AA/	.	.	.
4BB-/	.	.	.
4C/	.	.	.
2D\	.	2A/	.
2BB-/	.	[2G/	.
=15	=15-	=15	=15
2C/	0ryy	2G/]	0r
2AA/	.	1F	.
1GG	.	.	.
.	.	2E/	.
=16	=16-	=16	=16
!	!LO:N:vis=1.	!	!
0FF	0r	2F/	[0a
.	.	1f	.
.	.	4e\	.
.	.	4d\	.
=17	=17-	=17	=17
1F	0ryy	2c\	1a]
.	.	1d	.
1F	.	.	1a
.	.	2c\	.
=18	=18-	=18	=18
1D	0ryy	0d	[0b-
2GG/	.	.	.
2GG/	.	.	.
=19	=19	=19	=19
!	!LO:N:vis=1.	!	!
1G	0r	1d	1b-]
1G	.	1e	1b-
=20	=20-	=20	=20
0F	0ryy	2c\	0a
.	.	1d	.
.	.	4c\	.
.	.	4B-\	.
=21	=21-	=21	=21
1BB-	0ryy	2d\	1f
.	.	1B-	.
1E-	.	.	1g
.	.	2c\	.
=22	=22-	=22	=22
!	!LO:N:vis=1.	!	!
2F\	0r	2A/	0a
2.D\	.	2.F/	.
4E\	.	4G/	.
2F\	.	2A/	.
=23	=23-	=23	=23
1G	0ryy	2B-\	1.d
.	.	1d	.
1G	.	.	.
.	.	4c\	2e/
.	.	4B-\	.
=24	=24-	=24	=24
0D	0ryy	2A/	1f
.	.	2B-\	.
.	.	2A/	1f
.	.	[2d\	.
=25	=25-	=25	=25
!	!LO:N:vis=1.	!	!
0E	0r	2d\]	1g
.	.	4c\	.
.	.	4B-\	.
.	.	2c\	1g
.	.	[2B-\	.
=26	=26-	=26	=26
1.D	0ryy	2B-\]	0f
.	.	4A/	.
.	.	4G/	.
.	.	2.F/	.
4C/	.	.	.
4BB-/	.	4G/	.
=27	=27-	=27	=27
1AA	0ryy	2A/	1r
.	.	2F/	.
2GG/	.	1G	[1b-
[2G\	.	.	.
=28	=28	=28	=28
!	!LO:N:vis=1.	!	!
4G\]	0r	2r	1b-]
4F\	.	.	.
2G\	.	2d\	.
2D\	.	1f	1a
2F\	.	.	.
=29	=29-	=29	=29
1C	0ryy	1e	1g
2.BB-/	.	1d	1b-
4C/	.	.	.
=30	=30-	=30	=30
1D	0ryy	1f	1a
2GG/	.	1e	1g
[2G\	.	.	.
=31	=31-	=31	=31
!	!LO:N:vis=1.	!	!
2G\]	0r	2d\	1b-
2E\	.	1g	.
2F\	.	.	1a
2D\	.	[2f\	.
=32	=32-	=32	=32
1C	0ryy	2f\]	1g
.	.	2e\	.
2.D\	.	2f\	2.f/
.	.	[2d\	.
4E\	.	.	4g/
=33	=33-	=33	=33
2F\	0ryy	2d\]	2a/
2G\	.	4c\	1b-
.	.	4B-\	.
1F	.	1c	.
.	.	.	2a/
=34	=34-	=34	=34
!	!LO:N:vis=1.	!	!
2G\	0r	2B-\	1.b-
2.GG/	.	1d	.
4AA/	.	.	.
4BB-/	.	4c\	4a/
4C/	.	4B-\	4g/
=35	=35-	=35	=35
2D\	0ryy	2A/	2f/
2E\	.	2G/	1g
1D	.	1A	.
.	.	.	2f#i/
=36	=36-	=36	=36
2r	0ryy	1G	0g
2.G\	.	.	.
.	.	1r	.
4F\	.	.	.
4E\	.	.	.
4D\	.	.	.
=37	=37	=37	=37
!	!LO:N:vis=1.	!	!
2.C/	0r	1c	0r
4BB-/	.	.	.
4AA/	.	2B-\	.
4GG/	.	.	.
[2G\	.	2B-\	.
=38	=38-	=38	=38
2G\]	0ryy	1A	1cc
2F\	.	.	.
1G	.	1G	2b-\
.	.	.	2b-\
=39	=39-	=39	=39
1D	0ryy	2r	1a
.	.	2A/	.
2r	.	1B-	1g
2G\	.	.	.
=40	=40-	=40	=40
!	!LO:N:vis=1.	!	!
1.F	0r	2A/	[0a
.	.	2.d\	.
.	.	4e\	.
[2D\	.	[2f\	.
=41	=41-	=41	=41
2D\]	0ryy	2f\]	0a]
4C/	.	4e\	.
4BB-/	.	4d\	.
2AA/	.	2c\	.
2D\	.	2f\	.
=42	=42-	=42	=42
1GG	0ryy	2d\	0b-
.	.	1e	.
1G	.	.	.
.	.	[2d\	.
=43	=43-	=43	=43
!	!LO:N:vis=1.	!	!
1F	0r	4d\]	1a
.	.	4c\	.
.	.	4B-\	.
.	.	4A/	.
2E\	.	2G/	1b-
2D\	.	2d\	.
=44	=44-	=44	=44
2F\	0ryy	2c\	2a/
2BB-/	.	2d\	2b-\
2F\	.	2c\	2a/
[2D\	.	[2d\	[2b-\
=45	=45-	=45	=45
4D\]	0ryy	4d\]	4b-\]
4E\	.	4c\	4a/
2F\	.	2A/	1a
1G	.	1B-	.
.	.	.	2g/
=46	=46	=46	=46
!	!LO:N:vis=1.	!	!
1D	[y0F	1A	1a
1r	.	1r	1r
=47	=47-	=47	=47
1.D	0F_yy	1.A	1.a
2D\	.	2A/	2a/
=48	=48-	=48	=48
1D	0F]yy	1A	1a
1D	.	1B-	1f
=49	=49-	=49	=49
0C	0E	1G	1g
.	.	1A	1e
=50	=50-	=50	=50
!	!LO:N:vis=1	!	!
1BB-	[y0D	2F/	2f/
.	.	2.B-\	4g/
.	.	.	4a/
1r	.	.	2b-\
.	.	4c\	.
.	.	[2d\	[2a/
=51	=51-	=51	=51
1F	0D]yy	4d\]	2a/]
.	.	4c\	.
.	.	4B-\	2g/
.	.	4A/	.
1F	.	1B-	2f/
.	.	.	4e/
.	.	.	4d/
=52	=52-	=52	=52
!	!LO:N:vis=1.	!	!
1.G	([y0C	1c	1e
.	.	[1c	[1e
2G\	.	.	.
=53	=53-	=53	=53
1G	0C_yy	2c\]	2e/]
.	.	2c\	2e/
2G\	.	1c	1e
2G\	.	.	.
=54	=54-	=54	=54
1E	0C_yy	1G	1g
1E	.	2G/	2g/
.	.	2G/	2g/
=55	=55	=55	=55
2AA/	0C])	1F	1a
2AA/	.	.	.
1E	.	1G	1g
=56	=56-	=56	=56
!	!LO:N:vis=1	!	!
1AA	[y0C	1A	1e
1AA	.	2A/	2e/
.	.	2A/	2e/
=57	=57-	=57	=57
1AA	0C]yy	1A	1e
1AA	.	1A	1e
=58	=58-	=58	=58
!	!LO:N:vis=1.	!	!
2BB-/	[y0D	1F	1d
2BB-/	.	.	.
1BB-	.	[1F	1r
=59	=59-	=59	=59
1BB-	0D_yy	2F/]	1d
.	.	2.B-\	.
1BB-	.	.	2d/
.	.	4c\	.
.	.	[2d\	[2f/
=60	=60-	=60	=60
0BB-	0D]yy	4d\]	4f/]
.	.	4c\	4e/
.	.	4B-\	4d/
.	.	4A/	4c/
.	.	1G	1d
=61	=61-	=61	=61
!	!LO:N:vis=1.	!	!
2AA/	([y0E	2A/	1c
2.C/	.	4G/	.
.	.	4F/	.
.	.	2.E/	2r
4BB-/	.	.	.
[2AA/	.	.	[2cc\
.	.	4F/	.
=62	=62-	=62	=62
2AA/]	0E_yy	1G	2cc\]
2GG/	.	.	2b-\
2AA/	.	2C/	2cc\
2GG/	.	2r	2b-\
=63	=63-	=63	=63
2AA/	0E_yy	2A/	2cc\
2BB-/	.	2G/	2dd\
1AA	.	1A	1cc
=64	=64	=64	=64
!	!LO:N:vis=1.	!	!
1GG	0E_y)	1B-	1b-
1r	.	2c\	2g/
.	.	4B-\	[2cc\
.	.	4A/	.
=65	=65-	=65	=65
2r	0E_yy	1.G	2cc\]
1C	.	.	4b-\
.	.	.	4a/
.	.	.	[1g
4BB-/	.	2A/	.
4AA/	.	.	.
=66	=66-	=66	=66
2GG/	0E]yy	2B-\	0g]
2.C/	.	2G/	.
.	.	1c	.
4BB-/	.	.	.
2C/	.	.	.
=67	=67-	=67	=67
!	!LO:N:vis=1.	!	!
1D	[y0F	2r	1.f
.	.	1d	.
2r	.	.	.
[2D\	.	4c\	2g/
.	.	4B-\	.
=68	=68-	=68	=68
2D\]	0F_yy	2.A/	[0a
4C/	.	.	.
4BB-/	.	4B-\	.
4AA/	.	2c\	.
4FF/	.	.	.
[2F\	.	[2d\	.
=69	=69-	=69	=69
4F\]	0F]yy	4d\]	1a]
4E\	.	4c\	.
4D\	.	4Bni\	.
4C/	.	4A/	.
1D	.	1Bni	1f
=70	=70-	=70	=70
!	!LO:N:vis=1.	!	!
1.C	([y0E	2c\	[0g
.	.	1e	.
4BB-/	.	4d\	.
4AA/	.	4c\	.
=71	=71-	=71	=71
2GG/	0E_yy	2Bni\	0g]
2AA/	.	2c\	.
2GG/	.	2Bni\	.
[2C/	.	[2e\	.
=72	=72-	=72	=72
4C/]	0E_yy	2e\]	0r
4D\	.	.	.
4E\	.	4d\	.
4F\	.	4c\	.
1G	.	1Bni	.
=73	=73	=73	=73
!	!LO:N:vis=1.	!	!
1C	0E_y)	0c	0r
2r	.	.	.
[2C/	.	.	.
=74	=74-	=74	=74
2C/]	0E_yy	2r	1.g
2C/	.	1e	.
1C	.	.	.
.	.	2e\	2g/
=75	=75-	=75	=75
0C	0E]yy	1e	1g
.	.	1e	1g
=76	=76-	=76	=76
!	!LO:N:vis=1.	!	!
0C	[y0E	0c	0g
=77	=77-	=77	=77
0AA	0E_yy	0e	0c
=78	=78-	=78	=78
1.C	0E]yy	1.e	1.g
2C/	.	2e\	2g/
=79	=79-	=79	=79
!	!LO:N:vis=1.	!	!
1C	0r	1e	1g
1BB-	.	1d	1g
=80	=80-	=80	=80
1AA	0ryy	1e	1a
1AA	.	1f	1a
=81	=81-	=81	=81
0GG	0ryy	0g	0b-
=82	=82	=82	=82
!	!LO:N:vis=1.	!	!
1C	0r	1e	1g
[1AA	.	[1e	[1cc
=83	=83-	=83	=83
2AA/]	0ryy	2e\]	2cc\]
2AA/	.	2e\	2cc\
1AA	.	1e	1cc
=84	=84-	=84	=84
1AA	0ryy	1e	1cc
2BB-/	.	2.d\	1b-
[2D\	.	.	.
.	.	4e\	.
=85	=85-	=85	=85
!	!LO:N:vis=1.	!	!
4D\]	0r	2f\	1a
4E\	.	.	.
2F\	.	2d\	.
2E\	.	2e\	2g/
2F\	.	[2c\	[2a/
=86	=86-	=86	=86
1D	0ryy	2c\]	2a/]
.	.	2B-\	4g/
.	.	.	4f/
2C/	.	1c	2e/
[2F\	.	.	[2a/
=87	=87-	=87	=87
4F\]	0ryy	1F	4a/]
4E\	.	.	4g/
2D\	.	.	1f
1C	.	1G	.
.	.	.	2e/
=88	=88-	=88	=88
!	!LO:N:vis=1.	!	!
2r	([y0D	1.F	0f
1F	.	.	.
[2D\	.	2A/	.
=89	=89-	=89	=89
4D\]	0D_yy	1A	0r
4E\	.	.	.
2.F\	.	.	.
.	.	1A	.
4E\	.	.	.
4D\	.	.	.
4C/	.	.	.
=90	=90-	=90	=90
!	!LO:N:vis=1.	!	!
2BB-/	0D_yy	2B-\	0r
1B-	.	1d	.
4A\	.	4c\	.
4G\	.	4B-\	.
=91	=91	=91	=91
!	!LO:N:vis=1.	!	!
2F\	0D_y)	2A/	0r
2BB-/	.	1B-	.
1F	.	.	.
.	.	2A/	.
=92	=92-	=92	=92
1BB-	0D_yy	1B-	0r
1BB-	.	2r	.
.	.	[2B-\	.
=93	=93-	=93	=93
1GG	0D]yy	4B-\]	0r
.	.	4c\	.
.	.	4d\	.
.	.	4e\	.
2FF/	.	2f\	.
[2BB-/	.	[2d\	.
=94	=94-	=94	=94
!	!LO:N:vis=1.	!	!
4BB-/]	[y0D	2d\]	0r
4C/	.	.	.
4D\	.	4c\	.
4E\	.	4B-\	.
2F\	.	2A/	.
2BB-/	.	2B-\	.
=95	=95-	=95	=95
2F\	0D_yy	2A/	0r
2.A\	.	2.d\	.
4G\	.	4c\	.
4F\	.	4B-\	.
4E\	.	4A/	.
=96	=96-	=96	=96
2F\	0D]yy	2B-\	1r
1G	.	1c	.
.	.	.	1f
2F\	.	2Bni\	.
=97	=97-	=97	=97
!	!LO:N:vis=1.	!	!
1G	[y0C	1.c	1.e
1r	.	.	.
.	.	2d\	2f/
=98	=98-	=98	=98
0r	0C_yy	2e\	2g/
.	.	2.A/	1a
.	.	4B-\	.
.	.	2c\	2g/
=99	=99-	=99	=99
0r	0C]yy	[0A	2a/
.	.	.	2.cc\
.	.	.	4b-\
.	.	.	4a/
.	.	.	4g/
=100	=100	=100	=100
0r	0D	1A]	2f/
.	.	.	1g
.	.	1A	.
.	.	.	2f#i/
=101	=101-	=101	=101
!	!LO:N:vis=1	!	!
1C	[y0E	2G/	1.g
.	.	2.E/	.
1C	.	.	.
.	.	4F/	.
.	.	[2G/	[2e/
=102	=102-	=102	=102
2C/	0E]yy	4G/]	4e/]
.	.	4F/	4f/
1C	.	4E/	2.g/
.	.	4D/	.
.	.	1C	.
.	.	.	4f/
2C/	.	.	4e/
.	.	.	4d/
=103	=103-	=103	=103
!	!LO:N:vis=0.	!	!
[0AA	[y0F	1r	1c
.	.	1c	2r
.	.	.	[2cc\
=104	=104-	=104	=104
1AA]	0F_yy	2c\	2cc\]
.	.	2.A/	2cc\
1AA	.	.	1a
.	.	4B-\	.
.	.	[2c\	.
=105	=105-	=105	=105
1r	0F_yy	4c\]	2b-\
.	.	4B-\	.
.	.	4A/	2.cc\
.	.	4G/	.
[1AA	.	1F	.
.	.	.	4b-\
.	.	.	4a/
.	.	.	4g/
=106	=106-	=106	=106
2AA/]	0F_yy	0r	1f
2BB-/	.	.	.
2AA/	.	.	2r
[2D\	.	.	[2f/
=107	=107-	=107	=107
2D\]	0F_yy	1B-	2f/]
4C/	.	.	4e/
4BB-/	.	.	4d/
2AA/	.	2c\	2c/
[2BB-/	.	[2B-\	[2d/
=108	=108-	=108	=108
4BB-/]	0F]yy	2B-\]	4d/]
4C/	.	.	4e/
2.D\	.	4A/	4f/
.	.	4G/	4g/
.	.	2F/	1a
4C/	.	.	.
4BB-/	.	2D/	.
4AA/	.	.	.
=109	=109	=109	=109
!	!LO:N:vis=00	!	!
0GG	[0Gl	1d	1.b-
.	.	2B-\	.
.	.	[2e-i\	[2g/
=110	=110-	=110	=110
0C	0G_	4e-\]	4g/]
.	.	4d\	4f/
.	.	4c\	4e/
.	.	4B-\	4d/
.	.	1c	1e
=111	=111-	=111	=111
1GG	0G]	1d	1d
1C	.	1G	1e
=112	=112-	=112	=112
1C	0r	2G/	1e
.	.	2G/	.
1C	.	1c	1e
=113	=113	=113	=113
*	*M2/1	*	*
*	*met(O)	*	*
*	*rscale:1/2	*	*
1D	0r	1A	1f
1E	.	1G	1g
=114	=114-	=114	=114
1C	0r	2r	1e
.	.	1c	.
2r	.	.	2r
[2F\	.	2c\	[2a/
=115	=115-	=115	=115
2F\]	0r	1c	2a/]
2F\	.	.	2a/
1F	.	1A	1a
=116	=116	=116	=116
1D	0r	2A/	1f
.	.	2A/	.
2GG/	.	2B-\	2g/
2GG/	.	2B-\	2g/
=117	=117-	=117	=117
2C/	0r	1G	2e/
2C/	.	.	2e/
1AA	.	1A	1f
=118	=118-	=118	=118
1BB-	0r	1F	1d
1GG	.	[1B-	1r
=119	=119	=119	=119
1.GG	0r	2B-\]	1g
.	.	2B-\	.
.	.	1B-	[1g
2GG/	.	.	.
=120	=120-	=120	=120
1C	0r	1.G	2g/]
.	.	.	2g/
1E	.	.	1g
.	.	2c\	.
=121	=121-	=121	=121
1D	0r	2A/	1a
.	.	1d	.
2GG/	.	.	2b-\
[2F\	.	[2c\	[2a/
=122	=122	=122	=122
2F\]	0r	2c\]	2a/]
2G\	.	2B-\	1g
1D	.	1A	.
.	.	.	2f#i/
=123	=123-	=123	=123
1r	0r	1G	1g
[1E	.	2r	1r
.	.	[2G/	.
=124	=124-	=124	=124
2E\]	0r	2G/]	1.g
2E\	.	2G/	.
2C/	.	2G/	.
2C/	.	2G/	2g/
=125	=125	=125	=125
2C/	0r	2c\	2g/
2C/	.	2c\	2g/
1F	.	2A/	1a
.	.	[2d\	.
=126	=126-	=126	=126
2.D\	0r	2d\]	2.f/
.	.	4c\	.
4E\	.	4B-\	4g/
2F\	.	2A/	2a/
[2E\	.	[2B-\	[2g/
=127	=127-	=127	=127
2E\]	0r	4B-\]	2g/]
.	.	4A/	.
2D\	.	2F/	1f
1C	.	1G	.
.	.	.	2e/
=128	=128	=128	=128
!	!LO:N:vis=1.	!	!
1r	[y0F	2F/	1f
.	.	2.f\	.
[1D	.	.	1r
.	.	4e\	.
.	.	[2d\	.
=129	=129-	=129	=129
1D]	1F]yy	2d\]	1a
.	.	4c\	.
.	.	4B-\	.
1E	1G	1c	1g
=130	=130-	=130	=130
1D	0A	2d\	1f
.	.	2D/	.
1C	.	1E	1e
=131	=131	=131	=131
!	!LO:N:vis=0	!	!
2BB-/	[y0B-	2F/	1d
2.GG/	.	1.G	.
.	.	.	2r
4AA/	.	.	.
4BB-/	.	.	2d/
4C/	.	.	.
=132	=132-	=132	=132
1D	0B-]yy	2F/	1f
.	.	2B-\	.
1E-	.	1G	1g
=133	=133-	=133	=133
1AA	0A	1c	2a/
.	.	.	1f
1D	.	1d	.
.	.	.	4e/
.	.	.	4d/
=134	=134	=134	=134
!	!LO:N:vis=0	!	!
1.GG	[y0G	1.B-	1e
.	.	.	1d
2AA/	.	2c\	.
=135	=135-	=135	=135
0BB-	0G]yy	2d\	2r
.	.	1B-	1dd
.	.	4A/	4cc\
.	.	4G/	4b-\
=136	=136-	=136	=136
1AA	0F	1A	2cc\
.	.	.	2.a/
1AA	.	1r	.
.	.	.	4b-\
.	.	.	2cc\
=137	=137	=137	=137
!	!LO:N:vis=0	!	!
2GG/	[y0G	2.d\	1b-
2.G\	.	.	.
.	.	4c\	.
.	.	2d\	2r
4F\	.	.	.
[2E\	.	2e\	[2g/
=138	=138-	=138	=138
2E\]	0G]yy	2c\	2g/]
2D\	.	2d\	2f/
1C	.	2e\	1e
.	.	2c\	.
=139	=139-	=139	=139
1BB-	0r	2d\	1d
.	.	1g	.
1GG	.	.	2r
.	.	4f\	[2g/
.	.	4e\	.
=140	=140	=140	=140
2r	0r	1d	4g/]
.	.	.	4a/
1G	.	.	1b-
.	.	1G	.
4F\	.	.	4a/
4E\	.	.	4g/
=141	=141-	=141	=141
1D	0r	2A/	2f/
.	.	2d\	2b-\
2E-i\	.	2c\	2cc\
2D\	.	[2f\	[2dd\
=142	=142-	=142	=142
2BB-/	0r	2f\]	2dd\]
2C/	.	2e\	1cc
1G	.	1d	.
.	.	.	2bni\
=143	=143	=143	=143
!	!LO:N:vis=0	!	!
2C/	[y0A	0c	1cc
2AA/	.	.	.
2BB-/	.	.	1r
2C/	.	.	.
=144	=144-	=144	=144
1D	0A]yy	0r	1f
2C/	.	.	2e/
[2D\	.	.	[2f/
=145	=145-	=145	=145
2D\]	0A	1r	2f/]
4C/	.	.	4e/
4BB-/	.	.	4d/
2D\	.	2r	2f/
2C/	.	2c\	2e/
=146	=146	=146	=146
!	!LO:N:vis=1.	!	!
2.BB-/	[y0B-	2d\	2.d/
.	.	2.f\	.
4C/	.	.	4e/
1D	.	.	1f
.	.	4e\	.
.	.	4d\	.
.	.	4c\	.
=147	=147-	=147	=147
1E-i	1B-]yy	2B-\	1g
.	.	2e-i\	.
2F\	1A	2c\	2a/
2D\	.	2d\	2f/
=148	=148-	=148	=148
1E-i	1G	2B-\	4g/
.	.	.	4f/
.	.	2.c\	4e/
.	.	.	4d/
1C	1G	.	1e
.	.	4B-\	.
.	.	2c\	.
=149	=149	=149	=149
!	!LO:N:vis=0	!	!
2r	[y0F	2A/	1f
1D	.	1B-	.
.	.	.	1r
4C/	.	4A/	.
4BB-/	.	4G/	.
=150	=150-	=150	=150
1AA	0F]yy	2F/	1a
.	.	2c\	.
1BB-	.	1d	1f
=151	=151-	=151	=151
1GG	0E	1r	1g
1C	.	1A	1e
=152	=152	=152	=152
2BB-/	1.F	1B-	2d/
1D	.	.	1f
.	.	2.A/	.
4C/	2G/	.	4e/
4BB-/	.	4B-\	4d/
=153	=153-	=153	=153
1AA	1A	1c	2c/
.	.	.	2cc\
2GG/	1B-	2r	1b-
2G\	.	2G/	.
=154	=154-	=154	=154
1F	0c	2A/	1a
.	.	2F/	.
1E	.	1G	1g
=155	=155	=155	=155
!	!LO:N:vis=00	!	!
1.D	[0dl	1A	2.f/
.	.	.	4g/
.	.	2F/	2a/
2BB-/	.	[2G/	[2b-\
=156	=156-	=156	=156
1GG	0d_	2G/]	2b-\]
.	.	4F/	4a/
.	.	4E/	4g/
2r	.	2G/	2b-\
2D\	.	2F/	[2a/
=157	=157-	=157	=157
1GG	0d_	1G	2a/]
.	.	.	1g
1D	.	1A	.
.	.	.	2f#i/
=158	=158	=158	=158
0GGl	0d]	0Gl	0gl
*	*rscale:1	*	*
!!LO:LB:i:g=z
=159||	=159||	=159||	=159||
*>B	*>B	*>B	*>B
*clefF4	*clefGv2	*clefGv2	*clefG2
*k[b-]	*k[b-]	*k[b-]	*k[b-]
*M2/1	*M2/1	*M2/1	*M2/1
*met(C|)	*met(C|)	*met(C|)	*met(C|)
!!section: Et iterum
!!!OMD: Et iterum
0D	0A	0d	0f
=160	=160	=160	=160
1D	1A	1d	1f
1D	1A	1d	1f
=161	=161	=161	=161
1D	1A	1d	1f
1D	1A	1d	1f
=162	=162	=162	=162
1D	1F	2.A/	1a
.	.	4B-\	.
1E	1G	1c	1g
=163	=163	=163	=163
0D	0A	0d	0f
=164	=164	=164	=164
1r	1r	1r	1r
1D	1A	1d	1f
=165	=165	=165	=165
1.GG	1.B-	1.d	1.g
2GG/	2B-\	2d\	2g/
=166	=166	=166	=166
1GG	1B-	1d	1g
1GG	1B-	1d	1g
=167	=167	=167	=167
1D	1A	2d\	1a
.	.	1f	.
1GG	1G	.	1b-
.	.	2e\	.
=168	=168	=168	=168
1D	1F	2f\	1a
.	.	2.d\	.
[1E-	1B-	.	1g
.	.	4c\	.
.	.	4B-\	.
.	.	4A/	.
=169	=169	=169	=169
1E-]	1c	1G	1g
2D\	[1d	2A/	2f/
[2E-i\	.	2G/	[2b-\
=170	=170	=170	=170
2E-\]	2d\]	2g\	2b-\]
2F\	2c\	2f\	1a
1G	1B-	2.d\	.
.	.	.	2g/
.	.	4e\	.
=171	=171	=171	=171
2D\	2A/	2f\	2a/
2.G\	1B-	1e	1g
4F\	.	.	.
2D\	[2A/	[2d\	2f/
=172	=172	=172	=172
1E	2A/]	2d\]	1g
.	2G/	2c#i\	.
1F	1A	1d	[1f;
=173	=173	=173	=173
0D;	0F;	0d;	0f]
=174	=174	=174	=174
1FF	0r	0r	0r
1GG	.	.	.
=175	=175	=175	=175
2FF/	1F	0r	0r
1BB-	.	.	.
.	1G	.	.
2C/	.	.	.
=176	=176	=176	=176
2D\	1F	0r	0r
2.BB-/	.	.	.
.	1B-	.	.
4C/	.	.	.
4D\	.	.	.
4E\	.	.	.
=177	=177	=177	=177
2F\	2A/	0r	0r
2D\	1B-	.	.
1E-	.	.	.
.	4A/	.	.
.	4G/	.	.
=178	=178	=178	=178
1D	2F/	0r	0r
.	2B-\	.	.
2E-i\	2c\	.	.
2F\	[2d\	.	.
=179	=179	=179	=179
1BB-	4d\]	0r	0r
.	4c\	.	.
.	1B-	.	.
1C	.	.	.
.	2A/	.	.
=180	=180	=180	=180
0BB-	1B-	1r	1r
.	1r	1d	1g
=181	=181	=181	=181
1E-i	1r	1c	1g
[1D	1B-	1d	[1f
=182	=182	=182	=182
2D\]	1B-	2d\	2f/]
2D\	.	2d\	2f/
1GG	1B-	1d	1g
=183	=183	=183	=183
1GG	2B-\	1d	1g
.	2B-\	.	.
1G	1B-	2d\	1b-
.	.	2e\	.
=184	=184	=184	=184
1F	1c	1f	1a
2G\	2B-\	2e\	2g/
[2F\	[2c\	[2f\	[2a/
=185	=185	=185	=185
2F\]	4c\]	4f\]	2a/]
.	4B-\	4e\	.
2E\	2G/	2c\	1g
1D	1A	1d	.
.	.	.	2f#i/
=186	=186	=186	=186
0E-	0G	1B-	1g
.	.	1c	1r
=187	=187	=187	=187
1.D	0r	2d\	1a
.	.	1f	.
.	.	.	1a
4C/	.	4e\	.
4BB-/	.	4d\	.
=188	=188	=188	=188
1AA	0r	1f	2a/
.	.	.	2a/
1GG	.	2g\	[1b-
.	.	[2d\	.
=189	=189	=189	=189
0r	0r	2d\]	2b-\]
.	.	4c\	4a/
.	.	4B-\	4g/
.	.	1d	2f/
.	.	.	[2b-\
=190	=190	=190	=190
0r	0r	2c\	2b-\]
.	.	2A/	1a
.	.	1B-	.
.	.	.	2g/
=191	=191	=191	=191
1D	1r	1A	1a
2D\	1A	1d	2r
[2D\	.	.	[2f/
=192	=192	=192	=192
2D\]	2A/	2d\	2f/]
2D\	1A	2d\	2f/
2C/	.	2e\	2e/
2C/	2A/	2c\	2e/
=193	=193	=193	=193
1BB-	1B-	1d	1d
2C/	1A	2c\	2e/
[2D\	.	2A/	[2f/
=194	=194	=194	=194
4D\]	1F	1d	4f/]
4C/	.	.	4g/
4AA/	.	.	2a/
4D\	.	.	.
1GG	1G	2B-\	1b-
.	.	[2e-i\	.
=195	=195	=195	=195
2C/	2A/	2e-\]	2cc\
1GG	2.B-\	2.d\	2.dd\
.	4A/	4eni\	4cc\
2D\	2F/	[2f\	2a/
=196	=196	=196	=196
2BB-/	1G	2f\]	2b-\
2C/	.	2e\	2g/
2FF/	2F/	2f\	2a/
2C/	2E/	[2c\	[2g/
=197	=197	=197	=197
1D	1F	2c\]	2g/]
.	.	2B-\	1f
1C	1G	1c	.
.	.	.	2e/
=198	=198	=198	=198
0D	1F	1A	0f
.	1r	1B-	.
=199	=199	=199	=199
1C	1.A	1c	0r
1FF	.	1c	.
.	2B-\	.	.
=200	=200	=200	=200
2r	1c	1A	1.a
1F	.	.	.
.	1d	1r	.
2G\	.	.	2b-\
=201	=201	=201	=201
2A\	2c\	1r	2cc\
2G\	1d	.	1b-
1D	.	2B-\	.
.	4c\	[2d\	4a/
.	4B-\	.	4g/
=202	=202	=202	=202
1D	2A/	4d\]	2f/
.	.	4e\	.
.	1d	2.f\	4g/
.	.	.	4a/
2BB-/	.	.	2b-\
.	.	4e\	.
2F\	2c\	2f\	[2a/
=203	=203	=203	=203
2G\	2B-\	2d\	2a/]
2E\	2G/	2c\	1g
1D	1A	1d	.
.	.	.	2f#i/
=204	=204	=204	=204
1GG	1G	1B-	1g
1r	1r	1c	1e
=205	=205	=205	=205
1C	1A	1c	1e
2C/	1A	2c\	2e/
2C/	.	[2c\	[2e/
=206	=206	=206	=206
2C/	2A/	2c\]	2e/]
2C/	1A	2c\	2e/
1D	.	1F	1f
.	2A/	.	.
=207	=207	=207	=207
1AA	1A	1c	1e
2r	1F	2d\	1f
[2D\	.	2A/	.
=208	=208	=208	=208
4D\]	1B-	2B-\	2d/
4C/	.	.	.
4BB-/	.	1d	2.g/
4AA/	.	.	.
1GG	1B-	.	.
.	.	.	4f/
.	.	4c\	4e/
.	.	4B-\	4d/
=209	=209	=209	=209
2AA/	1A	2c\	2c/
2.D\	.	1A	2.f/
.	1F	.	.
4E\	.	.	4g/
2F\	.	[2d\	[2a/
=210	=210	=210	=210
1E	1G	2d\]	2a/]
.	.	2c\	1g
1D	1A	1d	.
.	.	.	2f/
=211	=211	=211	=211
2E\	2G/	2c\	2g/
2D\	1A	2d\	1f
2.AA/	.	2.c\	.
.	4G/	.	4e/
4BB-/	4F/	4B-\	4d/
=212	=212	=212	=212
2C/	2E/	2A/	2c/
2BB-/	2D/	2G/	1d
1AA	1E	1A	.
.	.	.	2c#i/
=213	=213	=213	=213
2r	0D	0F	1d
2.A\	.	.	.
.	.	.	1r
4G\	.	.	.
4F\	.	.	.
4E\	.	.	.
=214	=214	=214	=214
0D	0r	1F	0f
.	.	1A	.
=215	=215	=215	=215
1BB-	0D	1.B-	1f
1BB-	.	.	1f
.	.	4A/	.
.	.	4G/	.
=216	=216	=216	=216
0F	1D	1A	[0f
.	1D	2D/	.
.	.	[2d\	.
=217	=217	=217	=217
0F	[0D	2d\]	0f_
.	.	4c\	.
.	.	4B-\	.
.	.	1A	.
=218	=218	=218	=218
0BB-	0D]	2B-\	0f]
.	.	4A/	.
.	.	4G/	.
.	.	2F/	.
.	.	[2B-\	.
=219	=219	=219	=219
1BB-	0D	4B-\]	0d
.	.	4A/	.
.	.	4G/	.
.	.	4F/	.
1BB-	.	1G	.
=220	=220	=220	=220
0AA	0F	0A	0c
=221	=221	=221	=221
0D	1F	1A	1f
.	1F	1A	1f
=222	=222	=222	=222
1.BB-	0G	0B-	0d
2BB-/	.	.	.
=223	=223	=223	=223
1.E-i	1r	1B-	1g
.	1G	[1B-	[1g
2E-i\	.	.	.
=224	=224	=224	=224
1E-i	1.G	2B-\]	2g/]
.	.	2B-\	2g/
[1C	.	2c\	1g
.	2G/	[2e-i\	.
=225	=225	=225	=225
1C]	1G	2e-\]	1e
.	.	4d\	.
.	.	4c\	.
1BB-	1G	2d\	1d
.	.	2B-\	.
=226	=226	=226	=226
1AA	0A	1c	1c
[1D	.	1F	[1f
=227	=227	=227	=227
2D\]	1.D	0f	2f/]
2E\	.	.	2g/
1F	.	.	1a
.	2E/	.	.
=228	=228	=228	=228
2.D\	1F	2.f\	1a
4C/	.	4e\	.
1BB-	1G	1d	1b-
=229	=229	=229	=229
2AA/	0A	1e	1.cc
2.A\	.	.	.
.	.	[1f	.
4G\	.	.	.
[2F\	.	.	[2a/
=230	=230	=230	=230
2F\]	1r	1f]	2a/]
4E\	.	.	4g/
4D\	.	.	4f/
2C/	1A	1r	2e/
[2D\	.	.	[2f/
=231	=231	=231	=231
2D\]	0B-	0r	2f/]
2.E\	.	.	2.g/
4D\	.	.	4a/
[2G\	.	.	2b-\
=232	=232	=232	=232
2G\]	1A	2r	1cc
2F\	.	2f\	.
1G	1G	2.d\	1b-
.	.	4e\	.
=233	=233	=233	=233
1F	0c	1f	1a
1E	.	2g\	1g
.	.	2e\	.
=234	=234	=234	=234
1D	1B-	2r	1dd
.	.	2.f\	.
1F	1A	.	1cc
.	.	4e\	.
.	.	2f\	.
=235	=235	=235	=235
1G	0d	2B-\	1.b-
.	.	1d	.
1D	.	.	.
.	.	2c\	[2a/
=236	=236	=236	=236
1F	1c	1A	4a/]
.	.	.	4g/
.	.	.	4f/
.	.	.	4e/
1G	1B-	2r	2d/
.	.	[2d\	[2g/
=237	=237	=237	=237
0D	0A	2d\]	2g/]
.	.	4c\	4f#i/
.	.	4B-\	4e/
.	.	2A/	1f#i
.	.	2d\	.
=238	=238	=238	=238
0E	0G	2Bni\	0g
.	.	1c	.
.	.	2Bni\	.
=239	=239	=239	=239
0C	1r	2c\	0e
.	.	2.e\	.
.	[1c	.	.
.	.	4d\	.
.	.	4c\	.
.	.	4B-\	.
=240	=240	=240	=240
[0F	1c]	[0A	1r
.	1c	.	1a
=241	=241	=241	=241
1F]	1A	1A]	1f
1E	1B-	1G	1g
=242	=242	=242	=242
0C	0c	4A/	2.e/
.	.	4B-\	.
.	.	4c\	.
.	.	4d\	4f/
.	.	1e	2g/
.	.	.	[2a/
=243	=243	=243	=243
1D	1F	2f\	4a/]
.	.	.	4g/
.	.	1.d	4f/
.	.	.	4e/
1BB-	1B-	.	2d/
.	.	.	2g/
=244	=244	=244	=244
2C/	1A	2c\	2e/
2D\	.	2A/	1f
2BB-/	1B-	2d\	.
[2E-i\	.	[2B-\	[2g/
=245	=245	=245	=245
4E-\]	1G	1B-]	4g/]
4D\	.	.	4f/
4C/	.	.	4e/
4BB-/	.	.	4d/
1AA	1A	1c	2c/
.	.	.	[2f/
=246	=246	=246	=246
2.D\	2.F/	2d\	4f/]
.	.	.	4g/
.	.	2f\	2a/
4E\	4G/	.	.
2F\	2A/	2d\	2f/
[2E\	[2B-\	[2e\	[2g/
=247	=247	=247	=247
2E\]	2B-\]	4e\]	4g/]
.	.	4d\	4f/
2F\	2A/	1.c	1f
1C	1G	.	.
.	.	.	2e/
=248	=248	=248	=248
*M3/1	*M3/1	*M3/1	*M3/1
*met(3)	*met(3)	*met(3)	*met(3)
0.D	0.F	0A	[0.f
.	.	1d	.
=249	=249	=249	=249
0F	0.r	1c	0.f]
.	.	1A	.
1F	.	1c	.
=250	=250	=250	=250
0D	1.F	1d	0.r
.	.	1B-	.
.	2G/	.	.
1C	1A	1c	.
=251	=251	=251	=251
2BB-/	0B-	0d	1.f
2C/	.	.	.
2D\	.	.	.
2E\	.	.	2g/
1F	1A	1c	1a
=252	=252	=252	=252
1G	1G	1B-	1b-
1C	1c	1e-i	1g
1F	1A	1c	1a
=253	=253	=253	=253
1D	1B-	1d	1f
1C	1.c	1e	1e
[1F	.	[1c	[1a
.	2B-\	.	.
=254	=254	=254	=254
1F]	2A/	1c]	1a]
.	2G/	.	.
0D	1A	0d	1f
.	1F	.	1a
=255	=255	=255	=255
1.E-	0G	1B-	1.g
.	.	1c	.
2F\	.	.	4f/
.	.	.	4e/
1G	[1B-	1B-	1d
=256	=256	=256	=256
1G	1B-]	0d	0g
0D	0A	.	.
.	.	1d	1f#i
=257	=257	=257	=257
*M4/1	*M4/1	*M4/1	*M4/1
*met(C|2)	*met(C|2)	*met(C|2)	*met(C|2)
00E-i	00G	[00B-	[00g
=258	=258	=258	=258
0G	0r	0B-]	0g]
1F\	[0A	1.c\	0r
[1A\	.	.	.
.	.	2d\	.
=259	=259	=259	=259
1A\]	0A]	1e\	00r
1F\	.	0f	.
0G	0B-	.	.
.	.	1e\	.
=260	=260	=260	=260
00F	0c	0f	00a
.	0A	0a	.
=261	=261	=261	=261
0G	0d	0g	0b-
0C	0c	0e	[0cc
=262	=262	=262	=262
0F	0A	0f	0cc]
0BB-	0B-	0d	0dd
=263	=263	=263	=263
1E-\	0G	0e-	0b-
1G\	.	.	.
0D	0F	0f	0a
=264	=264	=264	=264
2GG/	0B-	0d	1.b-\
1G\	.	.	.
2F\	.	.	2a/
1E\	1c\	1e\	1g/
[1D\	[1d\	[1f\	1f/
=265	=265	=265	=265
1D\]	1d\]	1f\]	0b-
1G\	1B-\	1d\	.
1E\	0c	1e\	1g/
1F\	.	1c\	1a/
=266	=266	=266	=266
0D	1.d\	1r	1f/
.	.	1f\	1a/
.	2c\	.	.
1GG/	1B-\	1d\	1b-\
1AA/	1A/	1c\	1cc\
=267	=267	=267	=267
0BB-	1G/	2d\	1b-\
.	.	2.B-\	.
.	1d\	.	1f/
.	.	4c\	.
.	.	2d\	.
1E-i\	1c\	1G/	1g/
1D\	1d\	1A/	1f/
=268	=268	=268	=268
1BB-/	0G	1B-\	1d/
1E-i\	.	1c\	0g
0D	0A	0d	.
.	.	.	1f#i/
=269	=269	=269	=269
00GGl	00Gl	00dl	00gl
==	==	==	==
*-	*-	*-	*-
!!!RDF**kern: l=long note in original notation
!!!RDF**kern: i=editorial accidental
!!!RDF**kern: V=start of tuplet marker
!!!RDF**kern: Z=end of tuplet marker
!!!ENC:	Jesse Rodin; Victoria Chang 2012/02/01
!!!END:	2012/02/01/
!!!EED:	Jesse Rodin
!!!EEV:	2012/06/25/
!!attribution-level@Jos: 4 (questionable)
!!!ONB:	Translated from MusicXML and edited on 2012/06/25/ by Craig Sapp
!!muse2ps: T^@{OPR}^u^@{ONM}{. }@{OTL}^C^@{COA}?\n@{SCT}^i2I150v85,85,85,150Q4c95
